X:30
T:Murphy Delaney
R:Jig
O:England
M:6/8
A:Lancashire
B:Winder
K:G
GAG B2A | GAG d2B | GAG Bcd | efg afd | \
GAG B2A | GAG def | gfe dcB | ABG FED :|*
 |:Bcd ded | ded dcB | cde e=fe | e=fe edc | \
Bcd ded | ded def | gfe dcB | ABG FED :|**
